X:238
T:Andy Stewart
O:england
M:3/4
L:1/4
C:Traditional/Words by Andy Stewart
R:Sad
B:FOUR WINDS MUSIC COLLECTION
N:Play this tune slowly and thoughtfully.
H:Though several versions of this tune have
H:been made, Andy Stewart created this more
H:familar version.
K:D
A | B2 A | B  G E-|-E2  z | D E G | A3 | G A B-|-B A B |
d B2 | d g2 | (fed) | B3 |  A G-G | A B d |
B2 d | e B2 | d B2 | A G2 | E G E | D2 E | G2 A |1 A2  z :|2 G2  |]
W:Andy Stewart created the words for this tune.
W:Arrangement: Patrick O. Young 1999.
